symbols/web/missed_video_call/materialsymbolsrounded/missed_video_call_wght500gradN25_20px.svg

<svg xmlns="http://www.w3.org/2000/svg" height="20" width="20"><path d="M8.938 10.938 7.229 9.229h.438q.312 0 .562-.25.25-.25.25-.583 0-.313-.25-.563-.25-.25-.562-.25H5.312q-.374 0-.656.282-.281.281-.281.635v2.333q0 .313.25.563.25.25.583.25.313 0 .563-.25.25-.25.25-.584v-.416l2.187 2.187q.167.167.334.24.166.073.333.073.187 0 .344-.063.156-.062.323-.208l2.52-2.542q.23-.25.219-.562-.01-.313-.26-.542-.229-.25-.552-.25-.323 0-.573.25Zm-5.334 5.708q-.771 0-1.323-.542-.552-.542-.552-1.333V5.229q0-.791.552-1.333.552-.542 1.323-.542h9.563q.771 0 1.323.542.552.542.552 1.333V8.75l2.354-2.354q.271-.271.573-.125.302.146.302.458v6.542q0 .312-.302.458-.302.146-.573-.125l-2.354-2.354v3.521q0 .791-.552 1.333-.552.542-1.323.542Zm0-1.875h9.563V5.229H3.604v9.542Zm0 0V5.229v9.542Z"/></svg>

<svg xmlns="http://www.w3.org/2000/svg" height="20" width="20"><path d="M8.938 10.938 7.229 9.229H7.667Q7.979 9.229 8.229 8.979Q8.479 8.729 8.479 8.396Q8.479 8.083 8.229 7.833Q7.979 7.583 7.667 7.583H5.312Q4.938 7.583 4.656 7.865Q4.375 8.146 4.375 8.5V10.833Q4.375 11.146 4.625 11.396Q4.875 11.646 5.208 11.646Q5.521 11.646 5.771 11.396Q6.021 11.146 6.021 10.812V10.396L8.208 12.583Q8.375 12.75 8.542 12.823Q8.708 12.896 8.875 12.896Q9.062 12.896 9.219 12.833Q9.375 12.771 9.542 12.625L12.062 10.083Q12.292 9.833 12.281 9.521Q12.271 9.208 12.021 8.979Q11.792 8.729 11.469 8.729Q11.146 8.729 10.896 8.979ZM3.604 16.646Q2.833 16.646 2.281 16.104Q1.729 15.562 1.729 14.771V5.229Q1.729 4.438 2.281 3.896Q2.833 3.354 3.604 3.354H13.167Q13.938 3.354 14.49 3.896Q15.042 4.438 15.042 5.229V8.75L17.396 6.396Q17.667 6.125 17.969 6.271Q18.271 6.417 18.271 6.729V13.271Q18.271 13.583 17.969 13.729Q17.667 13.875 17.396 13.604L15.042 11.25V14.771Q15.042 15.562 14.49 16.104Q13.938 16.646 13.167 16.646ZM3.604 14.771H13.167Q13.167 14.771 13.167 14.771Q13.167 14.771 13.167 14.771V5.229Q13.167 5.229 13.167 5.229Q13.167 5.229 13.167 5.229H3.604Q3.604 5.229 3.604 5.229Q3.604 5.229 3.604 5.229V14.771Q3.604 14.771 3.604 14.771Q3.604 14.771 3.604 14.771ZM3.604 14.771Q3.604 14.771 3.604 14.771Q3.604 14.771 3.604 14.771V5.229Q3.604 5.229 3.604 5.229Q3.604 5.229 3.604 5.229Q3.604 5.229 3.604 5.229Q3.604 5.229 3.604 5.229V14.771Q3.604 14.771 3.604 14.771Q3.604 14.771 3.604 14.771Z"/></svg>
